!!!OTL: EIN GROBSCHMIDT SASS IN GUTER RUH
!!!ARE: Europa, Mitteleuropa, Deutschland
!!!SCT: F0526
!!!YEM: Copyright 1995, estate of Helmut Schaffrath.
**kern
*ICvox
*Ivox
*M2/4
*k[f#]
*G:
{8d
=1
8g
8g
8g
8g
=2
8g
8e
8d}
{8d
=3
4g
4dd
=4
4b
4g
=5
8a
8d
8d}
{8d
=6
8e
8e
8d
8d
=7
8e
8e
8d}
{8d
=8
8e
8e
8f#
8f#
=9
4g}
{4dd
=10
8b
8b
8a
8a
=11
4g
8r}
==
!!!AGN: Studenten - Lied
!!!ONB: ESAC (Essen Associative Code) Database: FINK
!!!AMT: simple duple
!!!AIN: vox
!!!EED: Helmut Schaffrath
!!!EEV: 1.0
*-
